assets/icons/24px/stroke/flame-24px.svg

<svg width="24" height="24" viewBox="0 0 24 24" fill="none" xmlns="http://www.w3.org/2000/svg">
<path fill-rule="evenodd" clip-rule="evenodd" d="M10.0862 2.22797C10.317 2.03801 10.6206 1.96122 10.9139 2.01863C11.6663 2.1659 13.211 2.62087 14.2866 4.0271C15.1342 5.13525 15.5818 6.68563 15.3084 8.80146C16.1054 7.87165 17.1686 6.87296 18.3892 6.63402C18.8964 6.53474 19.3713 6.47476 19.7689 6.5205C19.9759 6.54432 20.2317 6.60382 20.4718 6.75962C20.7358 6.93085 20.9209 7.18013 21.0117 7.46983C21.1613 7.94724 21.0152 8.42502 20.936 8.66604C20.856 8.9097 20.7389 9.19257 20.6268 9.46308C20.6045 9.517 20.5824 9.57043 20.5608 9.62296C20.0126 10.9569 19.3716 12.7392 20.289 14.9199C20.9918 16.5902 20.7101 18.1904 20.1377 19.4029C19.5868 20.57 18.6996 21.5183 17.9472 21.8944C17.4532 22.1414 16.8526 21.9412 16.6056 21.4472C16.3586 20.9532 16.5588 20.3525 17.0528 20.1055C17.3005 19.9817 17.9133 19.43 18.3291 18.5491C18.7236 17.7135 18.8755 16.7175 18.4455 15.6955C17.1974 12.7288 18.1283 10.2803 18.7109 8.86269C18.7386 8.79542 18.7647 8.73224 18.7893 8.67268C18.8015 8.64321 18.8133 8.61463 18.8247 8.58688C18.808 8.59006 18.7909 8.59335 18.7734 8.59677C18.2756 8.69421 17.5965 9.20337 16.8188 10.1125C16.0824 10.9735 15.4131 12.0033 14.8916 12.8266C14.8455 12.8993 14.8 12.9713 14.7554 13.0421C14.5576 13.3554 14.3761 13.6427 14.2344 13.847C14.1556 13.9607 14.0442 14.1154 13.9215 14.2362L13.9189 14.2387C13.8763 14.2807 13.7114 14.4432 13.454 14.5226C13.2955 14.5716 13.0347 14.6085 12.7502 14.4888C12.4634 14.3682 12.3055 14.1529 12.2283 13.9982C12.1043 13.7497 12.1113 13.5101 12.1132 13.4469L12.1133 13.4433C12.1162 13.3405 12.1298 13.2406 12.1435 13.158C12.1717 12.9893 12.2203 12.7815 12.2823 12.5438C12.408 12.0624 12.6148 11.3608 12.9095 10.3993C13.7924 7.51895 13.2981 6.0267 12.698 5.24214C12.4371 4.901 12.1214 4.64668 11.8012 4.45768C11.8055 4.49937 11.8099 4.54044 11.8143 4.58098C11.8214 4.64713 11.8289 4.71408 11.8365 4.78162C11.8765 5.13809 11.9183 5.51096 11.9183 5.86831C11.9183 6.85212 11.6122 7.69988 10.7623 8.94759C10.1868 9.79249 10.1486 10.922 10.2442 11.9981C10.2649 12.2308 10.2902 12.4476 10.3144 12.6553C10.3172 12.6795 10.32 12.7036 10.3228 12.7276C10.3479 12.9436 10.3745 13.1765 10.3824 13.3746C10.3864 13.475 10.3872 13.5961 10.3738 13.7202C10.362 13.8293 10.331 14.0308 10.215 14.2357C10.0753 14.4823 9.81 14.728 9.41874 14.7865C9.0961 14.8347 8.83747 14.7297 8.71031 14.6675C8.19642 14.416 7.59426 13.9486 7.05198 13.4994C6.70932 13.2155 6.33977 12.895 5.9919 12.5932C5.89455 12.5088 5.7989 12.4258 5.70601 12.3456C5.7475 13.2537 5.65896 14.367 5.42617 16.2027C5.23819 17.685 5.58266 18.4504 5.94712 18.9226C6.14689 19.1815 6.38458 19.393 6.6502 19.6025C6.7044 19.6452 6.76823 19.6939 6.83734 19.7465C7.04716 19.9065 7.30569 20.1036 7.49138 20.2853C7.88609 20.6716 7.89292 21.3047 7.50663 21.6994C7.12034 22.0941 6.48721 22.101 6.0925 21.7147C5.99932 21.6235 5.89649 21.5453 5.73962 21.426C5.65045 21.3582 5.54383 21.2771 5.41159 21.1728C5.09359 20.9219 4.70956 20.5926 4.36386 20.1446C3.63739 19.2034 3.19594 17.8919 3.44206 15.9511C3.83747 12.833 3.76833 12.1264 3.46523 10.9398C3.42753 10.7922 3.39052 10.5994 3.40081 10.3935C3.41067 10.1961 3.47521 9.8219 3.81311 9.54284C4.1553 9.26024 4.53831 9.2721 4.73336 9.30312C4.93325 9.3349 5.10375 9.40956 5.21845 9.4671C5.64768 9.68241 6.19996 10.1372 6.69088 10.5551C6.90679 10.7389 7.12164 10.9254 7.33626 11.1116C7.63337 11.3695 7.93005 11.627 8.22854 11.8765C8.15205 10.747 8.19662 9.16165 9.10937 7.82166C9.83139 6.76167 9.91829 6.30564 9.91829 5.86831C9.91829 5.63217 9.89156 5.39099 9.85212 5.03507C9.84387 4.96066 9.83507 4.88124 9.82584 4.7958C9.77482 4.32353 9.72181 3.74463 9.72181 3.00001C9.72181 2.70113 9.85549 2.41792 10.0862 2.22797ZM5.39574 10.412C5.39576 10.412 5.39597 10.4131 5.39626 10.4152C5.39585 10.413 5.39571 10.4119 5.39574 10.412ZM4.31494 11.2515C4.3112 11.25 4.30925 11.2491 4.30922 11.249C4.30918 11.2489 4.31105 11.2496 4.31494 11.2515ZM19.5461 8.50823C19.5461 8.50827 19.5448 8.5081 19.5425 8.50766C19.545 8.50798 19.5462 8.5082 19.5461 8.50823Z" fill="white"/>
</svg>

<svg width="24" height="24" fill="none" xmlns="http://www.w3.org/2000/svg"><path fill-rule="evenodd" clip-rule="evenodd" d="M10.086 2.228a1 1 0 0 1 .828-.21c.752.148 2.297.603 3.373 2.01.847 1.107 1.295 2.658 1.021 4.773.797-.93 1.86-1.928 3.081-2.167.507-.1.982-.16 1.38-.114.207.024.463.084.703.24.264.17.449.42.54.71.15.477.003.955-.076 1.196-.08.244-.197.527-.31.797l-.065.16c-.548 1.334-1.19 3.116-.272 5.297.703 1.67.421 3.27-.151 4.483-.551 1.167-1.438 2.115-2.19 2.491a1 1 0 1 1-.895-1.788c.247-.124.86-.676 1.276-1.557.395-.835.546-1.831.116-2.854-1.248-2.966-.317-5.415.266-6.832l.078-.19.036-.086-.052.01c-.497.097-1.177.606-1.954 1.516-.737.86-1.406 1.89-1.927 2.714a85.66 85.66 0 0 0-.137.215c-.197.313-.379.6-.52.805-.08.114-.19.268-.313.39l-.003.002a1.157 1.157 0 0 1-.465.284 1.03 1.03 0 0 1-1.226-.525 1.163 1.163 0 0 1-.115-.551v-.004a2.13 2.13 0 0 1 .03-.285c.029-.169.077-.377.14-.614.125-.482.332-1.183.627-2.145.882-2.88.388-4.372-.212-5.157a3.107 3.107 0 0 0-.897-.784 23.195 23.195 0 0 0 .035.324c.04.356.082.729.082 1.086 0 .984-.306 1.832-1.156 3.08-.575.844-.613 1.974-.518 3.05.02.233.046.45.07.657l.009.073c.025.216.051.449.06.647.003.1.004.221-.01.345-.011.11-.042.31-.158.516a1.1 1.1 0 0 1-.796.55 1.206 1.206 0 0 1-.709-.118c-.514-.252-1.116-.72-1.658-1.169a63.43 63.43 0 0 1-1.06-.906l-.286-.247c.041.908-.047 2.021-.28 3.857-.188 1.482.157 2.247.521 2.72.2.259.438.47.703.68l.187.143c.21.16.469.358.654.54a1 1 0 1 1-1.398 1.429c-.094-.091-.197-.17-.353-.289-.09-.068-.196-.149-.328-.253a5.908 5.908 0 0 1-1.048-1.028c-.727-.942-1.168-2.253-.922-4.194.395-3.118.326-3.825.023-5.011a1.852 1.852 0 0 1-.064-.546c.01-.198.074-.572.412-.851a1.15 1.15 0 0 1 .92-.24c.2.032.37.107.485.164.43.215.982.67 1.473 1.088.216.184.43.37.645.557.297.258.594.515.893.764-.077-1.129-.032-2.714.88-4.054.722-1.06.81-1.516.81-1.954 0-.236-.027-.477-.067-.833a83.84 83.84 0 0 1-.026-.24A15.983 15.983 0 0 1 9.722 3a1 1 0 0 1 .364-.772zm-4.69 8.184zm-1.081.84zm15.231-2.744z" fill="#fff"/></svg>
